_includes/icons/ios-potted-plant.svg

<svg fill="#666" height="50" viewBox="0 0 50 50" width="50" xmlns="http://www.w3.org/2000/svg"><path d="m14 2c-5.585937 0-10.3125 1.65625-10.3125 1.65625-.464844.148438-.757812.609375-.6875 1.09375 0 0 .585938 3.734375 2.46875 7.5.941406 1.882813 2.21875 3.777344 3.96875 5.25s4.003906 2.5 6.71875 2.5c2.246094 0 3.75-.40625 3.75-.40625.535156-.148437.851563-.699219.703125-1.234375-.148437-.535156-.699219-.851562-1.234375-.703125 0 0-1.210937.34375-3.21875.34375-2.230469 0-3.980469-.773437-5.4375-2-1.457031-1.226562-2.609375-2.9375-3.46875-4.65625-1.371094-2.738281-1.863281-5.023437-2.0625-6.03125 1.070313-.335937 4.402344-1.3125 8.8125-1.3125 4.371094 0 6.867188 1.859375 8.125 4.28125 1.058594 2.039063 1.148438 4.546875.4375 6.6875-1.203125-1.375-2.570312-2.597656-3.9375-3.65625-3.601562-2.789062-7.1875-4.46875-7.1875-4.46875-.183594-.089844-.390625-.125-.59375-.09375-.445312.054688-.800781.402344-.863281.847656-.066406.441407.171875.875.582031 1.058594 0 0 3.414063 1.585938 6.8125 4.21875 3.398438 2.632813 6.625 6.253906 6.625 10v2.125c-.003906.042969-.003906.082031 0 .125v.1875.6875h-13c-.03125 0-.0625 0-.09375 0-.515625.046875-.910156.480469-.90625 1v6c0 .550781.449219 1 1 1h1.1875l2.84375 13.21875c.101563.453125.503906.777344.96875.78125h18c.464844-.003906.867188-.328125.96875-.78125l2.84375-13.21875h1.1875c.550781 0 1-.449219 1-1v-6c0-.550781-.449219-1-1-1h-13v-.6875c0-.054687 0-.105469 0-.15625.003906-.050781.003906-.105469 0-.15625.082031-1.566406.800781-2.949219 1.90625-4.21875 1.179688-1.355469 2.8125-2.523437 4.46875-3.46875 3.3125-1.890625 6.65625-2.84375 6.65625-2.84375.542969-.105469.902344-.628906.796875-1.171875s-.628906-.902344-1.171875-.796875c-.0625.003906-.125.015625-.1875.03125 0 0-3.53125.996094-7.09375 3.03125-.699219.398438-1.386719.859375-2.0625 1.34375.105469-.785156.300781-1.746094.71875-2.71875.925781-2.144531 2.644531-4.1875 6.96875-4.1875s6.902344.898438 7.8125 1.25c-.210937.882813-.675781 2.550781-1.84375 4.5625-1.550781 2.679688-4 5.1875-8.125 5.1875-2.414062 0-4-.75-4-.75-.324219-.164062-.714844-.136719-1.015625.070313-.300781.203125-.464844.558593-.429687.921875.035156.363281.265625.675781.601562.820312 0 0 2.007813.9375 4.84375.9375 4.964844 0 8.09375-3.164062 9.84375-6.1875 1.75-3.023437 2.28125-6.03125 2.28125-6.03125.085938-.449219-.144531-.902344-.5625-1.09375 0 0-3.820312-1.6875-9.40625-1.6875-5.007812 0-7.671875 2.761719-8.8125 5.40625s-1 5.21875-1 5.21875v.03125c-.265625.261719-.535156.53125-.78125.8125-.265625.304688-.515625.636719-.75.96875-.339844-1.28125-.910156-2.5-1.65625-3.625 1.390625-2.898437 1.449219-6.492187-.09375-9.46875-1.582031-3.050781-4.941406-5.34375-9.90625-5.34375zm-2 26h26v4h-26zm2.21875 6h21.5625l-2.59375 12h-16.375z"/></svg>

<svg xmlns="http://www.w3.org/2000/svg" viewBox="0 0 50 50" width="50" height="50" fill="#666"><path d="M 14 2 C 8.414063 2 3.6875 3.65625 3.6875 3.65625 C 3.222656 3.804688 2.929688 4.265625 3 4.75 C 3 4.75 3.585938 8.484375 5.46875 12.25 C 6.410156 14.132813 7.6875 16.027344 9.4375 17.5 C 11.1875 18.972656 13.441406 20 16.15625 20 C 18.402344 20 19.90625 19.59375 19.90625 19.59375 C 20.441406 19.445313 20.757813 18.894531 20.609375 18.359375 C 20.460938 17.824219 19.910156 17.507813 19.375 17.65625 C 19.375 17.65625 18.164063 18 16.15625 18 C 13.925781 18 12.175781 17.226563 10.71875 16 C 9.261719 14.773438 8.109375 13.0625 7.25 11.34375 C 5.878906 8.605469 5.386719 6.320313 5.1875 5.3125 C 6.257813 4.976563 9.589844 4 14 4 C 18.371094 4 20.867188 5.859375 22.125 8.28125 C 23.183594 10.320313 23.273438 12.828125 22.5625 14.96875 C 21.359375 13.59375 19.992188 12.371094 18.625 11.3125 C 15.023438 8.523438 11.4375 6.84375 11.4375 6.84375 C 11.253906 6.753906 11.046875 6.71875 10.84375 6.75 C 10.398438 6.804688 10.042969 7.152344 9.980469 7.597656 C 9.914063 8.039063 10.152344 8.472656 10.5625 8.65625 C 10.5625 8.65625 13.976563 10.242188 17.375 12.875 C 20.773438 15.507813 24 19.128906 24 22.875 L 24 25 C 23.996094 25.042969 23.996094 25.082031 24 25.125 C 24 25.1875 24 25.25 24 25.3125 L 24 26 L 11 26 C 10.96875 26 10.9375 26 10.90625 26 C 10.390625 26.046875 9.996094 26.480469 10 27 L 10 33 C 10 33.550781 10.449219 34 11 34 L 12.1875 34 L 15.03125 47.21875 C 15.132813 47.671875 15.535156 47.996094 16 48 L 34 48 C 34.464844 47.996094 34.867188 47.671875 34.96875 47.21875 L 37.8125 34 L 39 34 C 39.550781 34 40 33.550781 40 33 L 40 27 C 40 26.449219 39.550781 26 39 26 L 26 26 L 26 25.3125 C 26 25.257813 26 25.207031 26 25.15625 C 26.003906 25.105469 26.003906 25.050781 26 25 C 26.082031 23.433594 26.800781 22.050781 27.90625 20.78125 C 29.085938 19.425781 30.71875 18.257813 32.375 17.3125 C 35.6875 15.421875 39.03125 14.46875 39.03125 14.46875 C 39.574219 14.363281 39.933594 13.839844 39.828125 13.296875 C 39.722656 12.753906 39.199219 12.394531 38.65625 12.5 C 38.59375 12.503906 38.53125 12.515625 38.46875 12.53125 C 38.46875 12.53125 34.9375 13.527344 31.375 15.5625 C 30.675781 15.960938 29.988281 16.421875 29.3125 16.90625 C 29.417969 16.121094 29.613281 15.160156 30.03125 14.1875 C 30.957031 12.042969 32.675781 10 37 10 C 41.324219 10 43.902344 10.898438 44.8125 11.25 C 44.601563 12.132813 44.136719 13.800781 42.96875 15.8125 C 41.417969 18.492188 38.96875 21 34.84375 21 C 32.429688 21 30.84375 20.25 30.84375 20.25 C 30.519531 20.085938 30.128906 20.113281 29.828125 20.320313 C 29.527344 20.523438 29.363281 20.878906 29.398438 21.242188 C 29.433594 21.605469 29.664063 21.917969 30 22.0625 C 30 22.0625 32.007813 23 34.84375 23 C 39.808594 23 42.9375 19.835938 44.6875 16.8125 C 46.4375 13.789063 46.96875 10.78125 46.96875 10.78125 C 47.054688 10.332031 46.824219 9.878906 46.40625 9.6875 C 46.40625 9.6875 42.585938 8 37 8 C 31.992188 8 29.328125 10.761719 28.1875 13.40625 C 27.046875 16.050781 27.1875 18.625 27.1875 18.625 C 27.1875 18.636719 27.1875 18.644531 27.1875 18.65625 C 26.921875 18.917969 26.652344 19.1875 26.40625 19.46875 C 26.140625 19.773438 25.890625 20.105469 25.65625 20.4375 C 25.316406 19.15625 24.746094 17.9375 24 16.8125 C 25.390625 13.914063 25.449219 10.320313 23.90625 7.34375 C 22.324219 4.292969 18.964844 2 14 2 Z M 12 28 L 38 28 L 38 32 L 12 32 Z M 14.21875 34 L 35.78125 34 L 33.1875 46 L 16.8125 46 Z"/></svg>
